X: 36
T:Ymgyrch Dôn y Waunlwyd
M:2/4
L:1/8
K:G
de/f/|gdBd|cAAc|BGdB|A2de/f/|gdBd|cAAc|BGAF|1 G2de/f/:|2 G2G2||:FAA>A|cB
B2|GBB>B|dBB2|eee/f/g/e/|ddB>B|cAGF|1 G2G2:|2 G2de/f/||
